dist/images/customer/middlebury-shield.svg

<svg xmlns="http://www.w3.org/2000/svg" width="105.176" height="116.026"><path d="M52.617 116.026l-.567-.272c-26.778-12.845-39.497-29.112-45.451-40.498-6.498-12.425-6.598-21.715-6.599-22.104v-53.152h105.176v53.148c0 .39-.073 9.677-6.553 22.104-5.937 11.385-18.64 27.652-45.44 40.502l-.566.272m-49.996-113.405v50.527c.001.085.123 9.153 6.379 21.045 5.74 10.905 17.96 26.477 43.616 38.924 25.677-12.453 37.882-28.021 43.604-38.926 6.236-11.89 6.334-20.955 6.334-21.043v-50.527h-99.933zM33.667 19.753c-1.183-1.585-2.758-2.859-4.587-3.67.7 1.013 1.291 2.256 1.746 3.67h2.841"/><path d="M25.403 15.338v4.415h3.36c-.848-2.31-2.081-3.876-3.36-4.415"/><path d="M18.986 25.655h4.451v-3.936h-3.94c-.275 1.187-.454 2.506-.511 3.936"/><path d="M20.076 19.753h3.361v-4.416c-1.28.539-2.513 2.105-3.361 4.416"/><path d="M19.497 31.559h3.94v-3.938h-4.451c.057 1.431.236 2.75.511 3.938"/><path d="M23.437 37.939v-4.414h-3.36c.847 2.31 2.08 3.876 3.36 4.414"/><path d="M17.021 27.621h-4.098c.119 1.4.493 2.725 1.067 3.938h3.504c-.257-1.231-.42-2.551-.473-3.938"/><path d="M29.343 21.719h-3.94v3.936h4.451c-.058-1.43-.237-2.749-.511-3.936"/><path d="M17.494 21.719h-3.504c-.575 1.213-.947 2.537-1.066 3.936h4.098c.052-1.386.215-2.706.472-3.936"/><path d="M15.174 33.525c1.183 1.584 2.756 2.857 4.585 3.668-.701-1.013-1.29-2.255-1.745-3.668h-2.84"/><path d="M31.819 25.655h4.097c-.118-1.399-.491-2.723-1.065-3.936h-3.506c.258 1.23.42 2.55.474 3.936"/><path d="M19.759 16.083c-1.829.811-3.402 2.084-4.584 3.669h2.84c.454-1.413 1.044-2.655 1.744-3.669"/><path d="M31.344 31.559h3.505c.575-1.214.948-2.538 1.066-3.938h-4.097c-.053 1.387-.215 2.707-.474 3.938"/><path d="M53.735 5.825v1.309c1 .429 1.704 1.382 1.704 2.504 0 1.121-.704 2.075-1.704 2.503v1.591c1.502.549 4.213 1.864 5.453 4.532 1.159 2.501 1.371 4.666 1.383 5.851h1.068v2.293h-18.102v-2.293h1.068c.012-1.185.224-3.35 1.384-5.851 1.237-2.663 3.948-3.983 5.452-4.534v-1.59c-.999-.429-1.704-1.38-1.704-2.501 0-1.122.706-2.075 1.704-2.502v-1.312h-45.002v45.924s.006 2.066.689 5.503l.238-.081c4.919-1.68 13.799-4.559 19.679-4.559 5.88 0 8.039 1.559 13.679 1.559.651 0 1.279.015 1.895.037v-10.312h19.938v10.65c3.994-.121 6.971-.005 10.567.646 4.979.899 8.04 4.139 11.579 4.679 3.539.541 6.658-.239 10.439-.059l2.312.108c1.279-5.013 1.283-8.172 1.283-8.172v-45.923h-45.002m-29.314 34.325c-7.451 0-13.513-6.062-13.513-13.513s6.062-13.511 13.513-13.511c7.45 0 13.51 6.06 13.51 13.511s-6.06 13.513-13.51 13.513zm39.574 1.795h-22.813v-2.294h3.455v-11.276h15.901v11.276h3.457v2.294zm17.15-20.313c2.381-4.335 7.679-4.419 7.679-4.419.079-.086 0 13.175 0 13.175s-5.298.085-7.679 4.421v-13.177zm-9.552-4.534s5.243.085 7.599 4.42v13.177c-2.355-4.336-7.599-4.421-7.599-4.421s-.076-13.262 0-13.176zm21.259 15.513l-12.6 7.389-12.607-7.389v-14.265h1.965v13.139l10.643 6.237 10.635-6.237v-13.139h1.965v14.265zM29.854 27.621h-4.451v3.938h3.94c.274-1.188.453-2.507.511-3.938"/><path d="M25.403 37.938c1.279-.54 2.512-2.104 3.36-4.413h-3.36v4.413"/><path d="M29.079 37.194c1.829-.81 3.403-2.085 4.586-3.669h-2.84c-.455 1.413-1.046 2.657-1.746 3.669"/><rect x="50.462" y="45.929" width="4.251" height="7.355"/><path d="M49.718 88.003c-.324-.259-.829-.519-1.67-.868-.635.337-1.089.855-1.089 1.607 0 .906.648 1.49 1.66 1.49.906 0 1.528-.532 1.528-1.297-.001-.4-.142-.711-.429-.932"/><path d="M48.629 85.93c.57-.285 1.245-.739 1.245-1.451 0-.688-.505-1.102-1.374-1.102-.83 0-1.375.453-1.375 1.126.001.754.896 1.181 1.504 1.427"/><path d="M55.823 83.416c-.505 0-.895.402-1.141 1.088-.207.559-.297 1.296-.297 2.217 0 .869.064 1.543.18 2.022.234 1.011.7 1.438 1.245 1.438.544 0 .983-.467 1.218-1.219.169-.557.246-1.296.246-2.163 0-.844-.064-1.426-.193-1.983-.248-1.011-.689-1.4-1.258-1.4"/><path d="M65.859 71.74v.047h-26.495l-19.201 12.027c6.84 8.364 17.082 17.088 32.433 24.439 15.388-7.365 25.637-16.105 32.469-24.481l-19.206-12.032m-21.7 19.309h-4.108v-1.153h1.504v-5.754c-.13.078-.532.337-.882.505-.349.169-.83.376-.985.428l-.349-.765 2.604-1.827h1.011v7.413h1.205v1.153zm4.315.246c-1.49 0-3.058-.738-3.058-2.449 0-1.05.7-1.893 1.658-2.229-.79-.323-1.386-1.114-1.386-1.982 0-1.646 1.529-2.294 2.941-2.294 1.633 0 2.762.868 2.762 2.139 0 1.062-.83 1.659-1.725 1.995 1.258.519 2.048 1.142 2.048 2.216 0 1.672-1.75 2.604-3.24 2.604zm7.322-.052c-2.28 0-3.006-2.655-3.006-4.51 0-2.552 1.296-4.393 3.02-4.393 2.319 0 3.046 2.554 3.046 4.433 0 2.682-1.245 4.47-3.06 4.47zm7.257 0c-2.28 0-3.008-2.655-3.008-4.51 0-2.552 1.298-4.393 3.021-4.393 2.32 0 3.045 2.554 3.045 4.433.001 2.682-1.242 4.47-3.058 4.47zM63.079 83.416c-.506 0-.895.402-1.141 1.088-.207.559-.297 1.296-.297 2.217 0 .869.064 1.543.182 2.022.232 1.011.698 1.438 1.244 1.438.543 0 .984-.467 1.217-1.219.17-.557.246-1.296.246-2.163 0-.844-.064-1.426-.193-1.983-.247-1.011-.688-1.4-1.258-1.4"/><rect x="38.909" y="56.496" width="27.359" height="1.965"/><path d="M42.287 61.243h20.603v7.915h-20.603v-7.915zm1.965 5.948h16.671v-3.982h-16.671v3.982z"/><rect x="50.462" y="30.558" width="4.251" height="6.6"/><rect x="46.863" y="30.568" width="1.311" height="6.586"/><rect x="57.001" y="30.568" width="1.311" height="6.586"/><path d="M53.837 9.641c0 .65-.559 1.18-1.248 1.18-.69 0-1.249-.529-1.249-1.18 0-.655.559-1.186 1.249-1.186.689 0 1.248.53 1.248 1.186"/><path d="M39.317 64.661l-22.745 14.342c.484.707.992 1.421 1.523 2.138l21.222-13.381v-3.099"/><path d="M65.858 67.87l21.184 13.389c.533-.717 1.041-1.43 1.527-2.136l-22.711-14.353v3.1"/></svg>

<?xml version="1.0" encoding="utf-8"?>
<!-- Generator: Adobe Illustrator 15.0.0, SVG Export Plug-In . SVG Version: 6.00 Build 0)  -->
<!DOCTYPE svg PUBLIC "-//W3C//DTD SVG 1.1//EN" "http://www.w3.org/Graphics/SVG/1.1/DTD/svg11.dtd">
<svg version="1.1" id="Layer_1" xmlns="http://www.w3.org/2000/svg" xmlns:xlink="http://www.w3.org/1999/xlink" x="0px" y="0px"
	 width="105.176px" height="116.026px" viewBox="0 0 105.176 116.026" enable-background="new 0 0 105.176 116.026"
	 xml:space="preserve">
<path d="M52.617,116.026l-0.567-0.272C25.272,102.909,12.553,86.642,6.599,75.256C0.101,62.831,0.001,53.541,0,53.152V0h105.176
	v53.148c0,0.39-0.073,9.677-6.553,22.104c-5.937,11.385-18.64,27.652-45.44,40.502L52.617,116.026 M2.621,2.621v50.527
	C2.622,53.233,2.744,62.301,9,74.193c5.74,10.905,17.96,26.477,43.616,38.924c25.677-12.453,37.882-28.021,43.604-38.926
	c6.236-11.89,6.334-20.955,6.334-21.043V2.621H2.621z"/>
<path d="M33.667,19.753c-1.183-1.585-2.758-2.859-4.587-3.67c0.7,1.013,1.291,2.256,1.746,3.67H33.667"/>
<path d="M25.403,15.338v4.415h3.36C27.915,17.443,26.682,15.877,25.403,15.338"/>
<path d="M18.986,25.655h4.451v-3.936h-3.94C19.222,22.906,19.043,24.225,18.986,25.655"/>
<path d="M20.076,19.753h3.361v-4.416C22.157,15.876,20.924,17.442,20.076,19.753"/>
<path d="M19.497,31.559h3.94v-3.938h-4.451C19.043,29.052,19.222,30.371,19.497,31.559"/>
<path d="M23.437,37.939v-4.414h-3.36C20.924,35.835,22.157,37.401,23.437,37.939"/>
<path d="M17.021,27.621h-4.098c0.119,1.4,0.493,2.725,1.067,3.938h3.504C17.237,30.328,17.074,29.008,17.021,27.621"/>
<path d="M29.343,21.719h-3.94v3.936h4.451C29.796,24.225,29.617,22.906,29.343,21.719"/>
<path d="M17.494,21.719H13.99c-0.575,1.213-0.947,2.537-1.066,3.936h4.098C17.074,24.269,17.237,22.949,17.494,21.719"/>
<path d="M15.174,33.525c1.183,1.584,2.756,2.857,4.585,3.668c-0.701-1.013-1.29-2.255-1.745-3.668H15.174"/>
<path d="M31.819,25.655h4.097c-0.118-1.399-0.491-2.723-1.065-3.936h-3.506C31.603,22.949,31.765,24.269,31.819,25.655"/>
<path d="M19.759,16.083c-1.829,0.811-3.402,2.084-4.584,3.669h2.84C18.469,18.339,19.059,17.097,19.759,16.083"/>
<path d="M31.344,31.559h3.505c0.575-1.214,0.948-2.538,1.066-3.938h-4.097C31.765,29.008,31.603,30.328,31.344,31.559"/>
<path d="M53.735,5.825v1.309c1,0.429,1.704,1.382,1.704,2.504c0,1.121-0.704,2.075-1.704,2.503v1.591
	c1.502,0.549,4.213,1.864,5.453,4.532c1.159,2.501,1.371,4.666,1.383,5.851h1.068v2.293H43.537v-2.293h1.068
	c0.012-1.185,0.224-3.35,1.384-5.851c1.237-2.663,3.948-3.983,5.452-4.534v-1.59c-0.999-0.429-1.704-1.38-1.704-2.501
	c0-1.122,0.706-2.075,1.704-2.502V5.825H6.439v45.924c0,0,0.006,2.066,0.689,5.503c0.079-0.027,0.16-0.053,0.238-0.081
	c4.919-1.68,13.799-4.559,19.679-4.559c5.88,0,8.039,1.559,13.679,1.559c0.651,0,1.279,0.015,1.895,0.037V43.896h19.938v10.65
	c3.994-0.121,6.971-0.005,10.567,0.646c4.979,0.899,8.04,4.139,11.579,4.679c3.539,0.541,6.658-0.239,10.439-0.059
	c0.975,0.046,1.684,0.079,2.312,0.108c1.279-5.013,1.283-8.172,1.283-8.172V5.825H53.735 M24.421,40.15
	c-7.451,0-13.513-6.062-13.513-13.513s6.062-13.511,13.513-13.511c7.45,0,13.51,6.06,13.51,13.511S31.871,40.15,24.421,40.15z
	 M63.995,41.945H41.182v-2.294h3.455V28.375h15.901v11.276h3.457V41.945z M81.145,21.632c2.381-4.335,7.679-4.419,7.679-4.419
	c0.079-0.086,0,13.175,0,13.175s-5.298,0.085-7.679,4.421V21.632z M71.593,17.098c0,0,5.243,0.085,7.599,4.42v13.177
	c-2.355-4.336-7.599-4.421-7.599-4.421S71.517,17.012,71.593,17.098z M92.852,32.611L80.252,40l-12.607-7.389V18.346h1.965v13.139
	l10.643,6.237l10.635-6.237V18.346h1.965V32.611z"/>
<path d="M29.854,27.621h-4.451v3.938h3.94C29.617,30.371,29.796,29.052,29.854,27.621"/>
<path d="M25.403,37.938c1.279-0.54,2.512-2.104,3.36-4.413h-3.36V37.938"/>
<path d="M29.079,37.194c1.829-0.81,3.403-2.085,4.586-3.669h-2.84C30.37,34.938,29.779,36.182,29.079,37.194"/>
<rect x="50.462" y="45.929" width="4.251" height="7.355"/>
<path d="M49.718,88.003c-0.324-0.259-0.829-0.519-1.67-0.868c-0.635,0.337-1.089,0.855-1.089,1.607c0,0.906,0.648,1.49,1.66,1.49
	c0.906,0,1.528-0.532,1.528-1.297C50.146,88.535,50.005,88.224,49.718,88.003"/>
<path d="M48.629,85.93c0.57-0.285,1.245-0.739,1.245-1.451c0-0.688-0.505-1.102-1.374-1.102c-0.83,0-1.375,0.453-1.375,1.126
	C47.126,85.257,48.021,85.684,48.629,85.93"/>
<path d="M55.823,83.416c-0.505,0-0.895,0.402-1.141,1.088c-0.207,0.559-0.297,1.296-0.297,2.217c0,0.869,0.064,1.543,0.18,2.022
	c0.234,1.011,0.7,1.438,1.245,1.438c0.544,0,0.983-0.467,1.218-1.219c0.169-0.557,0.246-1.296,0.246-2.163
	c0-0.844-0.064-1.426-0.193-1.983C56.833,83.805,56.392,83.416,55.823,83.416"/>
<path d="M65.859,71.74v0.047H39.364L20.163,83.814c6.84,8.364,17.082,17.088,32.433,24.439
	c15.388-7.365,25.637-16.105,32.469-24.481L65.859,71.74 M44.159,91.049h-4.108v-1.153h1.504v-5.754
	c-0.13,0.078-0.532,0.337-0.882,0.505c-0.349,0.169-0.83,0.376-0.985,0.428l-0.349-0.765l2.604-1.827h1.011v7.413h1.205V91.049z
	 M48.474,91.295c-1.49,0-3.058-0.738-3.058-2.449c0-1.05,0.7-1.893,1.658-2.229c-0.79-0.323-1.386-1.114-1.386-1.982
	c0-1.646,1.529-2.294,2.941-2.294c1.633,0,2.762,0.868,2.762,2.139c0,1.062-0.83,1.659-1.725,1.995
	c1.258,0.519,2.048,1.142,2.048,2.216C51.714,90.363,49.964,91.295,48.474,91.295z M55.796,91.243c-2.28,0-3.006-2.655-3.006-4.51
	c0-2.552,1.296-4.393,3.02-4.393c2.319,0,3.046,2.554,3.046,4.433C58.856,89.455,57.611,91.243,55.796,91.243z M63.053,91.243
	c-2.28,0-3.008-2.655-3.008-4.51c0-2.552,1.298-4.393,3.021-4.393c2.32,0,3.045,2.554,3.045,4.433
	C66.112,89.455,64.869,91.243,63.053,91.243z"/>
<path d="M63.079,83.416c-0.506,0-0.895,0.402-1.141,1.088c-0.207,0.559-0.297,1.296-0.297,2.217c0,0.869,0.064,1.543,0.182,2.022
	c0.232,1.011,0.698,1.438,1.244,1.438c0.543,0,0.984-0.467,1.217-1.219c0.17-0.557,0.246-1.296,0.246-2.163
	c0-0.844-0.064-1.426-0.193-1.983C64.09,83.805,63.649,83.416,63.079,83.416"/>
<rect x="38.909" y="56.496" width="27.359" height="1.965"/>
<path d="M42.287,61.243h20.603v7.915H42.287V61.243z M44.252,67.191h16.671v-3.982H44.252V67.191z"/>
<rect x="50.462" y="30.558" width="4.251" height="6.6"/>
<rect x="46.863" y="30.568" width="1.311" height="6.586"/>
<rect x="57.001" y="30.568" width="1.311" height="6.586"/>
<path d="M53.837,9.641c0,0.65-0.559,1.18-1.248,1.18c-0.69,0-1.249-0.529-1.249-1.18c0-0.655,0.559-1.186,1.249-1.186
	C53.278,8.455,53.837,8.985,53.837,9.641"/>
<path d="M39.317,64.661L16.572,79.003c0.484,0.707,0.992,1.421,1.523,2.138L39.317,67.76V64.661"/>
<path d="M65.858,67.87l21.184,13.389c0.533-0.717,1.041-1.43,1.527-2.136L65.858,64.77V67.87"/>
</svg>
